exports/global-child-mortality-timeseries_v1_850x600.svg

<svg xmlns="http://www.w3.org/2000/svg" version="1.1" style="background-color:#fff;-webkit-font-smoothing:antialiased" width="850" height="600" font-family="'Helvetica Neue',Helvetica,Arial,sans-serif" font-size="18" text-rendering="optimizeLegibility"><g class="ChartTab"><g class="HeaderView"><g opacity=".8" transform="matrix(.31 0 0 .31 770 15)"><a xmlns:xlink="http://www.w3.org/1999/xlink" xlink:href="https://ourworldindata.org" target="_blank"><g><path fill="#1B2543" d="M0 0h211.2v130.1H0z"/><path fill="#E63912" d="M0 112.2h211.2v17.9H0z"/><g><path fill="none" d="M1.2 12.3h210.2v99.2H1.2z"/><path fill="#FFF" d="M37.8 32.2c0 12.7-7.7 19.4-17.1 19.4-9.7 0-16.6-7.5-16.6-18.7 0-11.7 7.3-19.3 17.1-19.3 10.1.1 16.6 7.7 16.6 18.6zm-28.6.6c0 7.9 4.3 14.9 11.8 14.9 7.5 0 11.8-6.9 11.8-15.3 0-7.3-3.8-14.9-11.8-14.9-7.9 0-11.8 7.3-11.8 15.3zM62.7 43.8c0 2.7.1 5.1.2 7.2h-4.3l-.3-4.3h-.1c-1.3 2.1-4 4.9-8.8 4.9-4.2 0-9.1-2.3-9.1-11.6V24.6h4.8v14.6c0 5 1.5 8.4 5.9 8.4 3.2 0 5.5-2.2 6.3-4.4.3-.7.4-1.6.4-2.5V24.6h4.8v19.2zM67.3 32.8c0-3.1-.1-5.8-.2-8.2h4.2l.2 5.2h.2c1.2-3.5 4.1-5.8 7.3-5.8.5 0 .9.1 1.4.2v4.5c-.5-.1-1-.2-1.6-.2-3.4 0-5.8 2.6-6.5 6.2-.1.7-.2 1.4-.2 2.2V51h-4.8V32.8zM95.4 51L86 14.2h5l4.4 18.6c1.1 4.6 2.1 9.2 2.7 12.7h.1c.6-3.7 1.8-8 3-12.8l4.9-18.5h5l4.5 18.7c1 4.4 2 8.7 2.6 12.6h.1c.8-4 1.8-8.1 3-12.7l4.9-18.5h4.9L120.6 51h-5L111 31.9c-1.1-4.7-1.9-8.3-2.4-12h-.1c-.7 3.7-1.5 7.3-2.8 12L100.4 51h-5zM154.9 37.6c0 9.8-6.8 14-13.2 14-7.2 0-12.7-5.2-12.7-13.6 0-8.8 5.8-14 13.1-14 7.7 0 12.8 5.5 12.8 13.6zm-21 .3c0 5.8 3.3 10.1 8 10.1 4.6 0 8-4.3 8-10.3 0-4.5-2.2-10.1-7.9-10.1s-8.1 5.2-8.1 10.3zM158.2 32.8c0-3.1-.1-5.8-.2-8.2h4.2l.2 5.2h.2c1.2-3.5 4.1-5.8 7.3-5.8.5 0 .9.1 1.4.2v4.5c-.5-.1-1-.2-1.6-.2-3.4 0-5.8 2.6-6.5 6.2-.1.7-.2 1.4-.2 2.2V51h-4.8V32.8zM173.5 12.3h4.8V51h-4.8V12.3zM206.5 12.3v31.9c0 2.3.1 5 .2 6.8h-4.3l-.2-4.6h-.2c-1.5 2.9-4.7 5.2-9 5.2-6.4 0-11.3-5.4-11.3-13.4-.1-8.8 5.4-14.2 11.9-14.2 4 0 6.8 1.9 8 4h.1V12.3h4.8zm-4.8 23.1c0-.6-.1-1.4-.2-2a7 7 0 00-6.9-5.6c-5 0-7.9 4.4-7.9 10.2 0 5.3 2.6 9.8 7.8 9.8 3.2 0 6.2-2.1 7.1-5.7.2-.7.2-1.3.2-2.1v-4.6zM42.8 64c.1 1.6-1.1 2.9-3.1 2.9-1.7 0-2.9-1.3-2.9-2.9 0-1.7 1.3-3 3-3 1.9 0 3 1.3 3 3zm-5.4 33.8V71.4h4.8v26.4h-4.8zM47.5 78.6c0-2.7-.1-5-.2-7.1h4.3l.3 4.4h.1c1.3-2.5 4.4-5 8.8-5 3.7 0 9.4 2.2 9.4 11.2v15.8h-4.8V82.6c0-4.3-1.6-7.8-6.1-7.8-3.2 0-5.6 2.2-6.5 4.9-.2.6-.3 1.4-.3 2.2v15.9h-4.8V78.6zM84 61.6c2.9-.4 6.3-.8 10.1-.8 6.8 0 11.7 1.6 14.9 4.6 3.3 3 5.2 7.3 5.2 13.2 0 6-1.9 10.9-5.3 14.3-3.4 3.4-9.1 5.3-16.3 5.3-3.4 0-6.2-.2-8.6-.4V61.6zm4.8 32.5c1.2.2 3 .3 4.8.3 10.2 0 15.7-5.7 15.7-15.6.1-8.7-4.9-14.2-14.9-14.2-2.5 0-4.3.2-5.6.5v29zM132.1 97.8l-.4-3.3h-.2a9.79 9.79 0 01-8.1 3.9c-5.4 0-8.1-3.8-8.1-7.6 0-6.4 5.7-9.9 15.9-9.8v-.5c0-2.2-.6-6.1-6-6.1-2.5 0-5 .8-6.9 2l-1.1-3.2c2.2-1.4 5.4-2.3 8.7-2.3 8.1 0 10.1 5.5 10.1 10.8v9.9c0 2.3.1 4.5.4 6.3h-4.3zm-.7-13.4c-5.3-.1-11.2.8-11.2 5.9 0 3.1 2.1 4.6 4.5 4.6 3.4 0 5.6-2.2 6.4-4.4.2-.5.3-1 .3-1.5v-4.6zM146.6 63.9v7.6h6.9v3.7h-6.9v14.2c0 3.3.9 5.1 3.6 5.1 1.3 0 2.2-.2 2.8-.3l.2 3.6c-.9.4-2.4.7-4.3.7-2.2 0-4-.7-5.2-2-1.4-1.4-1.9-3.8-1.9-6.9V75.1h-4.1v-3.7h4.1v-6.3l4.8-1.2zM171.4 97.8l-.4-3.3h-.2a9.79 9.79 0 01-8.1 3.9c-5.4 0-8.1-3.8-8.1-7.6 0-6.4 5.7-9.9 15.9-9.8v-.5c0-2.2-.6-6.1-6-6.1-2.5 0-5 .8-6.9 2l-1.1-3.2c2.2-1.4 5.4-2.3 8.7-2.3 8.1 0 10.1 5.5 10.1 10.8v9.9c0 2.3.1 4.5.4 6.3h-4.3zm-.7-13.4c-5.3-.1-11.2.8-11.2 5.9 0 3.1 2.1 4.6 4.5 4.6 3.4 0 5.6-2.2 6.4-4.4.2-.5.3-1 .3-1.5v-4.6z"/></g></g></a></g><a href="https://ourworldindata.org/grapher/global-child-mortality-timeseries" target="_blank"><text font-size="27" x="15" y="36.6" fill="#555"><tspan x="15" y="36.6">Global child mortality</tspan></text></a><text font-size="14.4" x="15" y="55.5" fill="#666"><tspan x="15" y="55.52">Share of the world population dying and surviving the first 5 years of life.</tspan></text></g><g class="StackedArea"><defs><clipPath id="a"><path d="M61.63 0h820v956.2h-820z"/></clipPath></defs><g class="AxisBoxView"><g class="HorizontalAxis" fill="#666" text-anchor="middle" font-size="16.2"><text x="61.6" y="556.5">1800</text><text x="206.2" y="556.5">1850</text><text x="350.8" y="556.5">1900</text><text x="495.3" y="556.5">1950</text><text x="639.9" y="556.5">2000</text><text x="683.2" y="556.5">2015</text></g><g class="VerticalAxis" fill="#666" dominant-baseline="middle" text-anchor="end" font-size="16.2"><text x="56.63" y="535.3">0%</text><text x="56.63" y="443.9">20%</text><text x="56.63" y="352.5">40%</text><text x="56.63" y="261.2">60%</text><text x="56.63" y="169.8">80%</text><text x="56.63" y="78.4">100%</text></g><g class="AxisGridLines"><path stroke="#ccc" d="M61.63 535.3h621.61"/><path stroke="#ddd" stroke-dasharray="3,2" d="M61.63 443.9h621.61M61.63 352.5h621.61M61.63 261.2h621.61M61.63 169.8h621.61M61.63 78.4h621.61"/></g><g class="AxisGridLines" stroke="#ddd" stroke-dasharray="3,2"><path d="M61.6 535.3V78.4M206.2 535.3V78.4M350.8 535.3V78.4M495.3 535.3V78.4M639.9 535.3V78.4"/></g></g><g clip-path="url(#a)"><g class="HeightedLegend clickable"><g class="legendMark"><path fill="#2a939b" d="M688.24 295.85h10v2.5h-10z"/><text font-size="14.4" x="703.2" y="293.7" fill="#333"><tspan x="703.24" y="293.67">Share surviving first</tspan><tspan x="703.24" y="309.51">5 years of life</tspan></text></g><g class="legendMark"><path fill="#e6332e" d="M688.24 524.35h10v2.5h-10z"/><text font-size="14.4" x="703.2" y="522.2" fill="#333"><tspan x="703.24" y="522.17">Share dying in first 5</tspan><tspan x="703.24" y="538.01">years</tspan></text></g></g><g class="Areas"><path d="M61.6 337.5l57.9 2.7 57.8 10.5 57.8-4.6 57.8 15.6 57.9 8.2 57.8 18.7 57.8 37.5 57.8 24.7 2.9 2.1 2.9 1.5 2.9 1.4 2.9-.5 2.9 1 2.9.8 2.9 1 2.9 2.4 2.8 6.4 2.9 2.2 2.9 1.6 2.9 1.4 2.9 1.5 2.9 1.4 2.9 1.2 2.9 1.3 2.9 1.2 2.9 1.1 2.9 1.1 2.8 1.2 2.9 1.4 2.9 1.4 2.9 1.4 2.9 1.4 2.9 1.4 2.9 1.1 2.9 1.1 2.9 1.1 2.9.8 2.9.7 2.9.6 2.8.5 2.9.4 2.9.4 2.9.5 2.9.6 2.9.7 2.9.9 2.9 1 2.9 1.1 2.9 1.2 2.9 1.2 2.8 1.3 2.9 1.1 2.9 1.3 2.9 1.1 2.9 1.1 2.9.9 2.9 1.1 2.9.8 2.9 1 2.9.9 2.9.9 2.8.7 2.9.7.04 19.4H61.64" fill="#e6332e" fill-opacity=".7" class="World_1-area"/><path d="M61.6 78.4H683.2v437.5l-2.9-.7-2.8-.7-2.9-.9-2.9-.9-2.9-1-2.9-.8-2.9-1.1-2.9-.9-2.9-1.1-2.9-1.1-2.9-1.3-2.9-1.1-2.8-1.3-2.9-1.2-2.9-1.2-2.9-1.1-2.9-1-2.9-.9-2.9-.7-2.9-.6-2.9-.5-2.9-.4-2.9-.4-2.8-.5-2.9-.6-2.9-.7-2.9-.8-2.9-1.1-2.9-1.1-2.9-1.1-2.9-1.4-2.9-1.4-2.9-1.4-2.9-1.4-2.9-1.4-2.8-1.2-2.9-1.1-2.9-1.1-2.9-1.2-2.9-1.3-2.9-1.2-2.9-1.4-2.9-1.5-2.9-1.4-2.9-1.6-2.9-2.2-2.8-6.4-2.9-2.4-2.9-1-2.9-.8-2.9-1-2.9.5-2.9-1.4-2.9-1.5-2.9-2.1-57.8-24.7-57.8-37.5-57.8-18.7-57.9-8.2-57.8-15.6-57.8 4.6-57.8-10.5-57.9-2.7" fill="#2a939b" fill-opacity=".7" class="World_0-area"/><path stroke-linecap="round" d="M61.6 337.5l57.9 2.7 57.8 10.5 57.8-4.6 57.8 15.6 57.9 8.2 57.8 18.7 57.8 37.5 57.8 24.7 2.9 2.1 2.9 1.5 2.9 1.4 2.9-.5 2.9 1 2.9.8 2.9 1 2.9 2.4 2.8 6.4 2.9 2.2 2.9 1.6 2.9 1.4 2.9 1.5 2.9 1.4 2.9 1.2 2.9 1.3 2.9 1.2 2.9 1.1 2.9 1.1 2.8 1.2 2.9 1.4 2.9 1.4 2.9 1.4 2.9 1.4 2.9 1.4 2.9 1.1 2.9 1.1 2.9 1.1 2.9.8 2.9.7 2.9.6 2.8.5 2.9.4 2.9.4 2.9.5 2.9.6 2.9.7 2.9.9 2.9 1 2.9 1.1 2.9 1.2 2.9 1.2 2.8 1.3 2.9 1.1 2.9 1.3 2.9 1.1 2.9 1.1 2.9.9 2.9 1.1 2.9.8 2.9 1 2.9.9 2.9.9 2.8.7 2.9.7" stroke="#C02B26" stroke-opacity=".7" stroke-width=".5" fill="none" class="World_1-border"/><path stroke-linecap="round" d="M61.6 78.4H683.2" stroke="#237B82" stroke-opacity=".7" stroke-width=".5" fill="none" class="World_0-border"/></g></g></g><g class="SourcesFooter" fill="#777"><g class="clickable" fill="#777"><text font-size="12.6" x="15" y="581.6"><tspan x="15" y="581.58">Source: Gapminder and the World Bank</tspan></text></g><text font-size="12.6" x="383.2" y="581.6"><tspan x="383.16" y="581.58"><a target="_blank" href="https://ourworldindata.org/a-history-of-global-living-conditions-in-5-charts/" fill="#777">OurWorldInData.org/a-history-of-global-living-conditions-in-5-charts/</a> • <a href="http://creativecommons.org/licenses/by-sa/4.0/deed.en_US" target="_blank" fill="#777">CC BY-SA</a></tspan></text></g></g></svg>

<svg xmlns="http://www.w3.org/2000/svg" version="1.1" style="font-family: 'Helvetica Neue', Helvetica, Arial, sans-serif; font-size: 18px; background-color: white; text-rendering: optimizeLegibility; -webkit-font-smoothing: antialiased;" width="850" height="600"><g class="ChartTab"><g class="HeaderView"><g opacity="0.8" transform="translate(770, 15) scale(0.31)"><a xmlns:xlink="http://www.w3.org/1999/xlink" xlink:href="https://ourworldindata.org" target="_blank"><g><rect x="0" y="0" fill="#1B2543" width="211.2" height="130.1"/><rect x="0" y="112.2" fill="#E63912" width="211.2" height="17.9"/><g><rect x="1.2" y="12.3" fill="none" width="210.2" height="99.2"/><path fill="#FFFFFF" d="M37.8,32.2c0,12.7-7.7,19.4-17.1,19.4c-9.7,0-16.6-7.5-16.6-18.7c0-11.7,7.3-19.3,17.1-19.3 C31.3,13.7,37.8,21.3,37.8,32.2z M9.2,32.8c0,7.9,4.3,14.9,11.8,14.9c7.5,0,11.8-6.9,11.8-15.3c0-7.3-3.8-14.9-11.8-14.9 C13.1,17.5,9.2,24.8,9.2,32.8z"/><path fill="#FFFFFF" d="M62.7,43.8c0,2.7,0.1,5.1,0.2,7.2h-4.3l-0.3-4.3h-0.1c-1.3,2.1-4,4.9-8.8,4.9c-4.2,0-9.1-2.3-9.1-11.6 V24.6h4.8v14.6c0,5,1.5,8.4,5.9,8.4c3.2,0,5.5-2.2,6.3-4.4c0.3-0.7,0.4-1.6,0.4-2.5V24.6h4.8V43.8z"/><path fill="#FFFFFF" d="M67.3,32.8c0-3.1-0.1-5.8-0.2-8.2h4.2l0.2,5.2h0.2c1.2-3.5,4.1-5.8,7.3-5.8c0.5,0,0.9,0.1,1.4,0.2v4.5 c-0.5-0.1-1-0.2-1.6-0.2c-3.4,0-5.8,2.6-6.5,6.2c-0.1,0.7-0.2,1.4-0.2,2.2V51h-4.8V32.8z"/><path fill="#FFFFFF" d="M95.4,51l-9.4-36.8h5l4.4,18.6c1.1,4.6,2.1,9.2,2.7,12.7h0.1c0.6-3.7,1.8-8,3-12.8l4.9-18.5h5l4.5,18.7 c1,4.4,2,8.7,2.6,12.6h0.1c0.8-4,1.8-8.1,3-12.7l4.9-18.5h4.9L120.6,51h-5L111,31.9c-1.1-4.7-1.9-8.3-2.4-12h-0.1 c-0.7,3.7-1.5,7.3-2.8,12L100.4,51H95.4z"/><path fill="#FFFFFF" d="M154.9,37.6c0,9.8-6.8,14-13.2,14c-7.2,0-12.7-5.2-12.7-13.6c0-8.8,5.8-14,13.1-14 C149.8,24,154.9,29.5,154.9,37.6z M133.9,37.9c0,5.8,3.3,10.1,8,10.1c4.6,0,8-4.3,8-10.3c0-4.5-2.2-10.1-7.9-10.1 C136.3,27.6,133.9,32.8,133.9,37.9z"/><path fill="#FFFFFF" d="M158.2,32.8c0-3.1-0.1-5.8-0.2-8.2h4.2l0.2,5.2h0.2c1.2-3.5,4.1-5.8,7.3-5.8c0.5,0,0.9,0.1,1.4,0.2v4.5 c-0.5-0.1-1-0.2-1.6-0.2c-3.4,0-5.8,2.6-6.5,6.2c-0.1,0.7-0.2,1.4-0.2,2.2V51h-4.8V32.8z"/><path fill="#FFFFFF" d="M173.5,12.3h4.8V51h-4.8V12.3z"/><path fill="#FFFFFF" d="M206.5,12.3v31.9c0,2.3,0.1,5,0.2,6.8h-4.3l-0.2-4.6H202c-1.5,2.9-4.7,5.2-9,5.2 c-6.4,0-11.3-5.4-11.3-13.4c-0.1-8.8,5.4-14.2,11.9-14.2c4,0,6.8,1.9,8,4h0.1V12.3H206.5z M201.7,35.4c0-0.6-0.1-1.4-0.2-2 c-0.7-3.1-3.3-5.6-6.9-5.6c-5,0-7.9,4.4-7.9,10.2c0,5.3,2.6,9.8,7.8,9.8c3.2,0,6.2-2.1,7.1-5.7c0.2-0.7,0.2-1.3,0.2-2.1V35.4z"/><path fill="#FFFFFF" d="M42.8,64c0.1,1.6-1.1,2.9-3.1,2.9c-1.7,0-2.9-1.3-2.9-2.9c0-1.7,1.3-3,3-3C41.7,61,42.8,62.3,42.8,64z M37.4,97.8V71.4h4.8v26.4H37.4z"/><path fill="#FFFFFF" d="M47.5,78.6c0-2.7-0.1-5-0.2-7.1h4.3l0.3,4.4h0.1c1.3-2.5,4.4-5,8.8-5c3.7,0,9.4,2.2,9.4,11.2v15.8h-4.8 V82.6c0-4.3-1.6-7.8-6.1-7.8c-3.2,0-5.6,2.2-6.5,4.9c-0.2,0.6-0.3,1.4-0.3,2.2v15.9h-4.8V78.6z"/><path fill="#FFFFFF" d="M84,61.6c2.9-0.4,6.3-0.8,10.1-0.8c6.8,0,11.7,1.6,14.9,4.6c3.3,3,5.2,7.3,5.2,13.2c0,6-1.9,10.9-5.3,14.3 c-3.4,3.4-9.1,5.3-16.3,5.3c-3.4,0-6.2-0.2-8.6-0.4V61.6z M88.8,94.1c1.2,0.2,3,0.3,4.8,0.3c10.2,0,15.7-5.7,15.7-15.6 c0.1-8.7-4.9-14.2-14.9-14.2c-2.5,0-4.3,0.2-5.6,0.5V94.1z"/><path fill="#FFFFFF" d="M132.1,97.8l-0.4-3.3h-0.2c-1.5,2.1-4.3,3.9-8.1,3.9c-5.4,0-8.1-3.8-8.1-7.6c0-6.4,5.7-9.9,15.9-9.8v-0.5 c0-2.2-0.6-6.1-6-6.1c-2.5,0-5,0.8-6.9,2l-1.1-3.2c2.2-1.4,5.4-2.3,8.7-2.3c8.1,0,10.1,5.5,10.1,10.8v9.9c0,2.3,0.1,4.5,0.4,6.3 H132.1z M131.4,84.4c-5.3-0.1-11.2,0.8-11.2,5.9c0,3.1,2.1,4.6,4.5,4.6c3.4,0,5.6-2.2,6.4-4.4c0.2-0.5,0.3-1,0.3-1.5V84.4z"/><path fill="#FFFFFF" d="M146.6,63.9v7.6h6.9v3.7h-6.9v14.2c0,3.3,0.9,5.1,3.6,5.1c1.3,0,2.2-0.2,2.8-0.3l0.2,3.6 c-0.9,0.4-2.4,0.7-4.3,0.7c-2.2,0-4-0.7-5.2-2c-1.4-1.4-1.9-3.8-1.9-6.9V75.1h-4.1v-3.7h4.1v-6.3L146.6,63.9z"/><path fill="#FFFFFF" d="M171.4,97.8l-0.4-3.3h-0.2c-1.5,2.1-4.3,3.9-8.1,3.9c-5.4,0-8.1-3.8-8.1-7.6c0-6.4,5.7-9.9,15.9-9.8v-0.5 c0-2.2-0.6-6.1-6-6.1c-2.5,0-5,0.8-6.9,2l-1.1-3.2c2.2-1.4,5.4-2.3,8.7-2.3c8.1,0,10.1,5.5,10.1,10.8v9.9c0,2.3,0.1,4.5,0.4,6.3 H171.4z M170.7,84.4c-5.3-0.1-11.2,0.8-11.2,5.9c0,3.1,2.1,4.6,4.5,4.6c3.4,0,5.6-2.2,6.4-4.4c0.2-0.5,0.3-1,0.3-1.5V84.4z"/></g></g></a></g><a href="https://ourworldindata.org/grapher/global-child-mortality-timeseries" target="_blank"><text font-size="27.00" x="15.0" y="36.6" fill="#555"><tspan x="15" y="36.6">Global child mortality</tspan></text></a><text font-size="14.40" x="15.0" y="55.5" fill="#666"><tspan x="15" y="55.519999999999996">Share of the world population dying and surviving the first 5 years of life.</tspan></text></g><g class="StackedArea"><defs><clipPath id="boundsClip-59"><rect x="61.634" y="0" width="820" height="956.2"></rect></clipPath></defs><g class="AxisBoxView"><g class="HorizontalAxis"><text x="61.6" y="556.5" fill="#666" text-anchor="middle" font-size="16.2">1800</text><text x="206.2" y="556.5" fill="#666" text-anchor="middle" font-size="16.2">1850</text><text x="350.8" y="556.5" fill="#666" text-anchor="middle" font-size="16.2">1900</text><text x="495.3" y="556.5" fill="#666" text-anchor="middle" font-size="16.2">1950</text><text x="639.9" y="556.5" fill="#666" text-anchor="middle" font-size="16.2">2000</text><text x="683.2" y="556.5" fill="#666" text-anchor="middle" font-size="16.2">2015</text></g><g class="VerticalAxis"><text x="56.63" y="535.3" fill="#666" dominant-baseline="middle" text-anchor="end" font-size="16.2">0%</text><text x="56.63" y="443.9" fill="#666" dominant-baseline="middle" text-anchor="end" font-size="16.2">20%</text><text x="56.63" y="352.5" fill="#666" dominant-baseline="middle" text-anchor="end" font-size="16.2">40%</text><text x="56.63" y="261.2" fill="#666" dominant-baseline="middle" text-anchor="end" font-size="16.2">60%</text><text x="56.63" y="169.8" fill="#666" dominant-baseline="middle" text-anchor="end" font-size="16.2">80%</text><text x="56.63" y="78.4" fill="#666" dominant-baseline="middle" text-anchor="end" font-size="16.2">100%</text></g><g class="AxisGridLines"><line x1="61.63" y1="535.3" x2="683.24" y2="535.3" stroke="#ccc"></line><line x1="61.63" y1="443.9" x2="683.24" y2="443.9" stroke="#ddd" stroke-dasharray="3,2"></line><line x1="61.63" y1="352.5" x2="683.24" y2="352.5" stroke="#ddd" stroke-dasharray="3,2"></line><line x1="61.63" y1="261.2" x2="683.24" y2="261.2" stroke="#ddd" stroke-dasharray="3,2"></line><line x1="61.63" y1="169.8" x2="683.24" y2="169.8" stroke="#ddd" stroke-dasharray="3,2"></line><line x1="61.63" y1="78.4" x2="683.24" y2="78.4" stroke="#ddd" stroke-dasharray="3,2"></line></g><g class="AxisGridLines"><line x1="61.6" y1="535.30" x2="61.6" y2="78.40" stroke="#ddd" stroke-dasharray="3,2"></line><line x1="206.2" y1="535.30" x2="206.2" y2="78.40" stroke="#ddd" stroke-dasharray="3,2"></line><line x1="350.8" y1="535.30" x2="350.8" y2="78.40" stroke="#ddd" stroke-dasharray="3,2"></line><line x1="495.3" y1="535.30" x2="495.3" y2="78.40" stroke="#ddd" stroke-dasharray="3,2"></line><line x1="639.9" y1="535.30" x2="639.9" y2="78.40" stroke="#ddd" stroke-dasharray="3,2"></line></g></g><g clip-path="url(#boundsClip-59)"><g class="HeightedLegend clickable"><g class="legendMark"><rect x="688.24" y="282.15000000000003" width="141.72000000000003" height="29.900000000000002" fill="#fff" opacity="0"></rect><rect x="688.24" y="295.85" width="10" height="2.5" fill="#2a939b"></rect><text font-size="14.40" x="703.2" y="293.7" fill="#333"><tspan x="703.24" y="293.67">Share surviving first</tspan><tspan x="703.24" y="309.51">5 years of life</tspan></text></g><g class="legendMark"><rect x="688.24" y="510.65000000000003" width="146.76000000000002" height="29.900000000000002" fill="#fff" opacity="0"></rect><rect x="688.24" y="524.35" width="10" height="2.5" fill="#e6332e"></rect><text font-size="14.40" x="703.2" y="522.2" fill="#333"><tspan x="703.24" y="522.1700000000001">Share dying in first 5</tspan><tspan x="703.24" y="538.0100000000001">years</tspan></text></g></g><g class="Areas"><rect x="61.634" y="78.4" width="621.606" height="456.9000000000001" opacity="0" fill="rgba(255,255,255,0)"></rect><path stroke-linecap="round" d="M61.6 337.5L119.5 340.2L177.3 350.7L235.1 346.1L292.9 361.7L350.8 369.9L408.6 388.6L466.4 426.1L524.2 450.8L527.1 452.9L530 454.4L532.9 455.8L535.8 455.3L538.7 456.3L541.6 457.1L544.5 458.1L547.4 460.5L550.2 466.9L553.1 469.1L556 470.7L558.9 472.1L561.8 473.6L564.7 475L567.6 476.2L570.5 477.5L573.4 478.7L576.3 479.8L579.2 480.9L582 482.1L584.9 483.5L587.8 484.9L590.7 486.3L593.6 487.7L596.5 489.1L599.4 490.2L602.3 491.3L605.2 492.4L608.1 493.2L611 493.9L613.9 494.5L616.7 495L619.6 495.4L622.5 495.8L625.4 496.3L628.3 496.9L631.2 497.6L634.1 498.5L637 499.5L639.9 500.6L642.8 501.8L645.7 503L648.5 504.3L651.4 505.4L654.3 506.7L657.2 507.8L660.1 508.9L663 509.8L665.9 510.9L668.8 511.7L671.7 512.7L674.6 513.6L677.5 514.5L680.3 515.2L683.2 515.9L683.24 535.3000000000001L61.634 535.3000000000001" fill="#e6332e" fill-opacity="0.7" class="World_1-area"></path><path stroke-linecap="round" d="M61.6 78.4L119.5 78.4L177.3 78.4L235.1 78.4L292.9 78.4L350.8 78.4L408.6 78.4L466.4 78.4L524.2 78.4L527.1 78.4L530 78.4L532.9 78.4L535.8 78.4L538.7 78.4L541.6 78.4L544.5 78.4L547.4 78.4L550.2 78.4L553.1 78.4L556 78.4L558.9 78.4L561.8 78.4L564.7 78.4L567.6 78.4L570.5 78.4L573.4 78.4L576.3 78.4L579.2 78.4L582 78.4L584.9 78.4L587.8 78.4L590.7 78.4L593.6 78.4L596.5 78.4L599.4 78.4L602.3 78.4L605.2 78.4L608.1 78.4L611 78.4L613.9 78.4L616.7 78.4L619.6 78.4L622.5 78.4L625.4 78.4L628.3 78.4L631.2 78.4L634.1 78.4L637 78.4L639.9 78.4L642.8 78.4L645.7 78.4L648.5 78.4L651.4 78.4L654.3 78.4L657.2 78.4L660.1 78.4L663 78.4L665.9 78.4L668.8 78.4L671.7 78.4L674.6 78.4L677.5 78.4L680.3 78.4L683.2 78.4L683.2 515.9L680.3 515.2L677.5 514.5L674.6 513.6L671.7 512.7L668.8 511.7L665.9 510.9L663 509.8L660.1 508.9L657.2 507.8L654.3 506.7L651.4 505.4L648.5 504.3L645.7 503L642.8 501.8L639.9 500.6L637 499.5L634.1 498.5L631.2 497.6L628.3 496.9L625.4 496.3L622.5 495.8L619.6 495.4L616.7 495L613.9 494.5L611 493.9L608.1 493.2L605.2 492.4L602.3 491.3L599.4 490.2L596.5 489.1L593.6 487.7L590.7 486.3L587.8 484.9L584.9 483.5L582 482.1L579.2 480.9L576.3 479.8L573.4 478.7L570.5 477.5L567.6 476.2L564.7 475L561.8 473.6L558.9 472.1L556 470.7L553.1 469.1L550.2 466.9L547.4 460.5L544.5 458.1L541.6 457.1L538.7 456.3L535.8 455.3L532.9 455.8L530 454.4L527.1 452.9L524.2 450.8L466.4 426.1L408.6 388.6L350.8 369.9L292.9 361.7L235.1 346.1L177.3 350.7L119.5 340.2L61.6 337.5" fill="#2a939b" fill-opacity="0.7" class="World_0-area"></path><path stroke-linecap="round" d="M61.6 337.5L119.5 340.2L177.3 350.7L235.1 346.1L292.9 361.7L350.8 369.9L408.6 388.6L466.4 426.1L524.2 450.8L527.1 452.9L530 454.4L532.9 455.8L535.8 455.3L538.7 456.3L541.6 457.1L544.5 458.1L547.4 460.5L550.2 466.9L553.1 469.1L556 470.7L558.9 472.1L561.8 473.6L564.7 475L567.6 476.2L570.5 477.5L573.4 478.7L576.3 479.8L579.2 480.9L582 482.1L584.9 483.5L587.8 484.9L590.7 486.3L593.6 487.7L596.5 489.1L599.4 490.2L602.3 491.3L605.2 492.4L608.1 493.2L611 493.9L613.9 494.5L616.7 495L619.6 495.4L622.5 495.8L625.4 496.3L628.3 496.9L631.2 497.6L634.1 498.5L637 499.5L639.9 500.6L642.8 501.8L645.7 503L648.5 504.3L651.4 505.4L654.3 506.7L657.2 507.8L660.1 508.9L663 509.8L665.9 510.9L668.8 511.7L671.7 512.7L674.6 513.6L677.5 514.5L680.3 515.2L683.2 515.9" stroke="rgb(192, 43, 38)" stroke-opacity="0.7" stroke-width="0.5" fill="none" class="World_1-border"></path><path stroke-linecap="round" d="M61.6 78.4L119.5 78.4L177.3 78.4L235.1 78.4L292.9 78.4L350.8 78.4L408.6 78.4L466.4 78.4L524.2 78.4L527.1 78.4L530 78.4L532.9 78.4L535.8 78.4L538.7 78.4L541.6 78.4L544.5 78.4L547.4 78.4L550.2 78.4L553.1 78.4L556 78.4L558.9 78.4L561.8 78.4L564.7 78.4L567.6 78.4L570.5 78.4L573.4 78.4L576.3 78.4L579.2 78.4L582 78.4L584.9 78.4L587.8 78.4L590.7 78.4L593.6 78.4L596.5 78.4L599.4 78.4L602.3 78.4L605.2 78.4L608.1 78.4L611 78.4L613.9 78.4L616.7 78.4L619.6 78.4L622.5 78.4L625.4 78.4L628.3 78.4L631.2 78.4L634.1 78.4L637 78.4L639.9 78.4L642.8 78.4L645.7 78.4L648.5 78.4L651.4 78.4L654.3 78.4L657.2 78.4L660.1 78.4L663 78.4L665.9 78.4L668.8 78.4L671.7 78.4L674.6 78.4L677.5 78.4L680.3 78.4L683.2 78.4" stroke="rgb(35, 123, 130)" stroke-opacity="0.7" stroke-width="0.5" fill="none" class="World_0-border"></path></g></g></g><g style="fill: #777;" class="SourcesFooter"><g style="fill: #777;" class="clickable"><text font-size="12.60" x="15.0" y="581.6"><tspan x="15" y="581.58">Source: Gapminder and the World Bank</tspan></text></g><text font-size="12.60" x="383.2" y="581.6"><tspan x="383.164" y="581.58"><a target='_blank' style='fill: #777;' href='https://ourworldindata.org/a-history-of-global-living-conditions-in-5-charts/'>OurWorldInData.org/a-history-of-global-living-conditions-in-5-charts/</a> • <a style="fill: #777;" href="http://creativecommons.org/licenses/by-sa/4.0/deed.en_US" target="_blank">CC BY-SA</a></tspan></text></g></g></svg>
